X: 38671
T: Strange Journey
R: reel
M: 4/4
K: Bminor
B~F3 BFAF|EFDE F~A3|B~F3 BFAF|EFDE FDFA|
B~F3 BFAF|EFDE F~A3|A~B3 dBAF|EFDE FDFA:|
d2cd B3c|decA B~e3|d2cd BFAF|EFDE FDFA|
d2cd B3c|decA B~e3|f2ed BFAF|1 EFDE FDFA:|2 EFDE FDdc||

